X: 20662
T: MISS GAY'S REEL
C:
%R: reel
B: Elias Howe "The Musician's Companion" 1843 p.66 #2
S: http://imslp.org/wiki/The_Musician's_Companion_(Howe,_Elias)
Z: 2015 John Chambers <jc:trillian.mit.edu>
M: 2/4
L: 1/16
K: G
% - - - - - - - - - - - - - - - - - - - - - - - - -
D2 |\
GGGG BABd | egdg bgeg | GGGG AGBG | AGBG GFED |\
A3B  AGAB | cBcd edef | gfga gfed | cBAF G2 :|
|:\
A2a2 a2(ba) | gfef g2g2 | G2Bd gfed | edef g2G2 |\
A2a2 a2(ba) | gfef g2d2 | egfa gfed | cBAF G2G2 :|
% - - - - - - - - - - - - - - - - - - - - - - - - -

% (Continued from previous page)

%%sep 1 1 500

